X: 32843
T: Port Na bPúcaí
R: waltz
M: 3/4
K: Dmajor
d>c A3 B|A{BA}G/E/ F2 G2|A>B =c3{dc}B|A3/2{BA}G/ {AB}A4|
d>c {AB}A3 B|A{BA}G/E/ {A}F2 {A}G2|A{BA}G/F/ G4-|G{AG}F G4:|
|:A>B c2 d2|e f/g/ {fg}f2 g2|{b}a{ba}g/f/ g2 e>f|{ef}e{fe}d/B/ c4|
[1 {AB}A>B c2 d2|{ef}e f/g/ {fg}f2 g2|{b}a{ba}g/f/ g2 e>f|e{fe}d/c/ d4:|
[2 d>c {AB}A3 B|{c}A{BA}G/E/ F2 G2|A{BA}G/F/ G4-|G{AG}F G4||

